gama.ui.shared/icons_svg/light/display/camera.lock.svg

<svg height="25" viewBox="-752.5 -3768.755 25 25" width="25" xmlns="http://www.w3.org/2000/svg"><g fill="none"><path d="m-748.16-3768.255h16.32c2.1208 0 3.84 1.7192 3.84 3.84v16.32c0 2.121-1.7192 3.84-3.84 3.84h-16.32c-2.12075 0-3.84-1.719-3.84-3.84v-16.32c0-2.1208 1.71925-3.84 3.84-3.84z" fill="#fff"/><path d="m-748.16-3768.255h16.32c2.1208 0 3.84 1.7192 3.84 3.84v16.32c0 2.121-1.7192 3.84-3.84 3.84h-16.32c-2.12075 0-3.84-1.719-3.84-3.84v-16.32c0-2.1208 1.71925-3.84 3.84-3.84z" stroke="#000" stroke-linecap="round" stroke-linejoin="round" stroke-width=".25"/><path d="m-736.4066-3757.8105s-.0623.0077-.0934.0077c-.0389 0-.07 0-.1011-.0155h-6.8989c-.6455 0-1.1666.5213-1.1666 1.1666v5.4447c0 .6453.5211 1.1665 1.1666 1.1665h7c.6456 0 1.1667-.5212 1.1667-1.1665v-5.4447c0-.6143-.47445-1.12-1.0733-1.1666zm-6.7045-.7778h6.2222v-.7777c0-1.719-1.3922-3.111-3.1111-3.111s-3.1111 1.392-3.1111 3.111zm7 .0389c.8867.1789 1.5556.9644 1.5556 1.9054v5.4446c0 1.0734-.8711 1.9444-1.9445 1.9444h-7c-1.0733 0-1.9444-.871-1.9444-1.9444v-5.4446c0-.941.6689-1.7265 1.5555-1.9054v-.8166c0-2.1468 1.7423-3.889 3.8889-3.889 2.1467 0 3.8889 1.7422 3.8889 3.889zm-4.66665 3.85v.2954c0 .5135.11665 1.019.35 1.47l.21775.428c.0389.0777.1245.132.2178.132s.1711-.0543.2178-.132l.2178-.428c.2255-.4588.35-.9643.35-1.47v-.2954c0-.4276-.35-.7776-.7778-.7776s-.7778.35-.7778.7776zm-.77775 0c0-.8556.7-1.5556 1.5555-1.5556.8556 0 1.5556.7 1.5556 1.5556v.2954c0 .63-.1478 1.2523-.4278 1.82l-.2178.428c-.1711.342-.5289.56-.91.56s-.7389-.218-.91-.56l-.21775-.428c-.28-.5677-.42775-1.19-.42775-1.82z" fill="#66727e"/></g></svg>

<?xml version="1.0" encoding="UTF-8" standalone="no"?>
<!DOCTYPE svg PUBLIC "-//W3C//DTD SVG 1.1//EN" "http://www.w3.org/Graphics/SVG/1.1/DTD/svg11.dtd">
<svg version="1.1" xmlns="http://www.w3.org/2000/svg" xmlns:xl="http://www.w3.org/1999/xlink" xmlns:dc="http://purl.org/dc/elements/1.1/" viewBox="-752.5 -3768.755 25 25" width="25" height="25">
  <defs/>
  <g id="SOURCES" stroke-dasharray="none" fill="none" stroke="none" fill-opacity="1" stroke-opacity="1">
    <title>SOURCES</title>
    <g id="SOURCES_Calque_2">
      <title>Calque 2</title>
      <g id="Graphic_8951">
        <path d="M -748.16 -3768.255 L -731.84 -3768.255 C -729.7192 -3768.255 -728 -3766.5358 -728 -3764.415 L -728 -3748.095 C -728 -3745.974 -729.7192 -3744.255 -731.84 -3744.255 L -748.16 -3744.255 C -750.28075 -3744.255 -752 -3745.974 -752 -3748.095 L -752 -3764.415 C -752 -3766.5358 -750.28075 -3768.255 -748.16 -3768.255 Z" fill="white"/>
        <path d="M -748.16 -3768.255 L -731.84 -3768.255 C -729.7192 -3768.255 -728 -3766.5358 -728 -3764.415 L -728 -3748.095 C -728 -3745.974 -729.7192 -3744.255 -731.84 -3744.255 L -748.16 -3744.255 C -750.28075 -3744.255 -752 -3745.974 -752 -3748.095 L -752 -3764.415 C -752 -3766.5358 -750.28075 -3768.255 -748.16 -3768.255 Z" stroke="black" stroke-linecap="round" stroke-linejoin="round" stroke-width=".25"/>
      </g>
      <g id="Group_8952">
        <title>lock</title>
        <g id="Graphic_8953">
          <path d="M -736.4066 -3757.8105 C -736.4066 -3757.8105 -736.4689 -3757.8028 -736.5 -3757.8028 C -736.5389 -3757.8028 -736.57 -3757.8028 -736.6011 -3757.8183 L -743.5 -3757.8183 C -744.1455 -3757.8183 -744.6666 -3757.297 -744.6666 -3756.6517 L -744.6666 -3751.207 C -744.6666 -3750.5617 -744.1455 -3750.0405 -743.5 -3750.0405 L -736.5 -3750.0405 C -735.8544 -3750.0405 -735.3333 -3750.5617 -735.3333 -3751.207 L -735.3333 -3756.6517 C -735.3333 -3757.266 -735.80775 -3757.7717 -736.4066 -3757.8183 Z M -743.1111 -3758.5883 L -736.8889 -3758.5883 L -736.8889 -3759.366 C -736.8889 -3761.085 -738.2811 -3762.477 -740 -3762.477 C -741.7189 -3762.477 -743.1111 -3761.085 -743.1111 -3759.366 Z M -736.1111 -3758.5494 C -735.2244 -3758.3705 -734.5555 -3757.585 -734.5555 -3756.644 L -734.5555 -3751.1994 C -734.5555 -3750.126 -735.4266 -3749.255 -736.5 -3749.255 L -743.5 -3749.255 C -744.5733 -3749.255 -745.4444 -3750.126 -745.4444 -3751.1994 L -745.4444 -3756.644 C -745.4444 -3757.585 -744.7755 -3758.3705 -743.8889 -3758.5494 L -743.8889 -3759.366 C -743.8889 -3761.5128 -742.1466 -3763.255 -740 -3763.255 C -737.8533 -3763.255 -736.1111 -3761.5128 -736.1111 -3759.366 Z M -740.77775 -3754.6994 L -740.77775 -3754.404 C -740.77775 -3753.8905 -740.6611 -3753.385 -740.42775 -3752.934 L -740.21 -3752.506 C -740.1711 -3752.4283 -740.0855 -3752.374 -739.9922 -3752.374 C -739.8989 -3752.374 -739.8211 -3752.4283 -739.7744 -3752.506 L -739.5566 -3752.934 C -739.3311 -3753.3928 -739.2066 -3753.8983 -739.2066 -3754.404 L -739.2066 -3754.6994 C -739.2066 -3755.127 -739.5566 -3755.477 -739.9844 -3755.477 C -740.4122 -3755.477 -740.7622 -3755.127 -740.7622 -3754.6994 Z M -741.5555 -3754.6994 C -741.5555 -3755.555 -740.8555 -3756.255 -740 -3756.255 C -739.1444 -3756.255 -738.4444 -3755.555 -738.4444 -3754.6994 L -738.4444 -3754.404 C -738.4444 -3753.774 -738.5922 -3753.1517 -738.8722 -3752.584 L -739.09 -3752.156 C -739.2611 -3751.814 -739.6189 -3751.596 -740 -3751.596 C -740.3811 -3751.596 -740.7389 -3751.814 -740.91 -3752.156 L -741.12775 -3752.584 C -741.40775 -3753.1517 -741.5555 -3753.774 -741.5555 -3754.404 Z" fill="#66727e"/>
        </g>
      </g>
    </g>
  </g>
</svg>
